X:04
T:Tyrolese Air. ET.04
M:3/4
L:1/8
Q:1/4=120
S:Eliza Tennyson MS, Lincolnshire,1822
R:air
O:England;Lincolnshire;Somersby
Z:vmp.R.Greig 2011 <http://www.village-music-project.org.uk>
K:G
D2|GGBBdd|dbg2″bar line omittedin MS”(3Bdg|a2c’2(3Acf|g2b2D2|!
GGBBdd|dbg2(3Bdg|a2c’2(3Acf|g4||!
(3Bdg|(3Acfa2(3Acf|(3Bdgb2(3Bdg|(3Acfa2(3Acf|(3Bdgb2D2|!
GGBBdd|dbg2(3Bdg|a2c’2″triplet sign added”(3Acf|g4|]

